src/assets/filled/ReceiveSquare.svg

<?xml version="1.0" encoding="UTF-8"?>
<svg width="24" height="24" viewBox="0 0 24 24" xmlns="http://www.w3.org/2000/svg">
 <path d="m16.19 2h-8.38c-3.64 0-5.81 2.17-5.81 5.81v8.37c0 3.65 2.17 5.82 5.81 5.82h8.37c3.64 0 5.81-2.17 5.81-5.81v-8.38c0.01-3.64-2.16-5.81-5.8-5.81zm-7.72 8.98c0.29-0.29 0.77-0.29 1.06 0l1.72 1.72v-6.19c0-0.41 0.34-0.75 0.75-0.75s0.75 0.34 0.75 0.75v6.19l1.72-1.72c0.29-0.29 0.77-0.29 1.06 0s0.29 0.77 0 1.06l-3 3c-0.07 0.07-0.15 0.12-0.24 0.16s-0.19 0.06-0.29 0.06-0.19-0.02-0.29-0.06c-0.09-0.04-0.17-0.09-0.24-0.16l-3-3c-0.29-0.29-0.29-0.76 0-1.06zm9.77 6.24c-2.01 0.67-4.12 1.01-6.24 1.01s-4.23-0.34-6.24-1.01c-0.39-0.13-0.6-0.56-0.47-0.95s0.55-0.61 0.95-0.47c3.72 1.24 7.81 1.24 11.53 0 0.39-0.13 0.82 0.08 0.95 0.47 0.12 0.4-0.09 0.82-0.48 0.95z"/>
</svg>

<svg width="24" height="24" viewBox="0 0 24 24"  xmlns="http://www.w3.org/2000/svg">
<path d="M16.19 2H7.81C4.17 2 2 4.17 2 7.81V16.18C2 19.83 4.17 22 7.81 22H16.18C19.82 22 21.99 19.83 21.99 16.19V7.81C22 4.17 19.83 2 16.19 2ZM8.47 10.98C8.76 10.69 9.24 10.69 9.53 10.98L11.25 12.7V6.51C11.25 6.1 11.59 5.76 12 5.76C12.41 5.76 12.75 6.1 12.75 6.51V12.7L14.47 10.98C14.76 10.69 15.24 10.69 15.53 10.98C15.82 11.27 15.82 11.75 15.53 12.04L12.53 15.04C12.46 15.11 12.38 15.16 12.29 15.2C12.2 15.24 12.1 15.26 12 15.26C11.9 15.26 11.81 15.24 11.71 15.2C11.62 15.16 11.54 15.11 11.47 15.04L8.47 12.04C8.18 11.75 8.18 11.28 8.47 10.98ZM18.24 17.22C16.23 17.89 14.12 18.23 12 18.23C9.88 18.23 7.77 17.89 5.76 17.22C5.37 17.09 5.16 16.66 5.29 16.27C5.42 15.88 5.84 15.66 6.24 15.8C9.96 17.04 14.05 17.04 17.77 15.8C18.16 15.67 18.59 15.88 18.72 16.27C18.84 16.67 18.63 17.09 18.24 17.22Z" />
</svg>
